X: 14
T: Hill of Hoath
S: Fitzmaurice Collection
N: "Hoath" is the phonetic spelling of "Howth"
N: D# in measure 10 is in the original but I think
N: C# makes more sense
N: 082217
Z: BB
L: 1/8
M: 4/4
R: hornpipe
Q: 1/4=160
K: D
(3A/B/c/| d2d2d2 ef | ABAG F3A | BAGF E2 FA | B2 c2 d4 |
d2d2d2 ef | ABAG F3A | BAGF E2 FA | B2 c2 d3 :|
(3A/B/c/| dcde f2 f2 | gfe^d d2 fg | agfe d2 cd | BABc A4 |
agfe d2 ef | ABAG F3A | BAGF E2 FA | Bgec d3 :|
%%%%%
